SVG/trophy.svg

<?xml version="1.0" encoding="utf-8"?>
<!-- Generated by IcoMoon.io -->
<!DOCTYPE svg PUBLIC "-//W3C//DTD SVG 1.1//EN" "http://www.w3.org/Graphics/SVG/1.1/DTD/svg11.dtd">
<svg version="1.1" xmlns="http://www.w3.org/2000/svg" xmlns:xlink="http://www.w3.org/1999/xlink" width="13" height="14" viewBox="0 0 13 14">
<path fill="#444444" d="M3.578 6.898q-0.578-1.266-0.578-2.898h-2v0.75q0 0.609 0.738 1.266t1.84 0.883zM12 4.75v-0.75h-2q0 1.633-0.578 2.898 1.102-0.227 1.84-0.883t0.738-1.266zM13 3.75v1q0 0.555-0.324 1.117t-0.875 1.016-1.352 0.762-1.684 0.348q-0.328 0.422-0.742 0.742-0.297 0.266-0.41 0.566t-0.113 0.699q0 0.422 0.238 0.711t0.762 0.289q0.586 0 1.043 0.355t0.457 0.895v0.5q0 0.109-0.070 0.18t-0.18 0.070h-6.5q-0.109 0-0.18-0.070t-0.070-0.18v-0.5q0-0.539 0.457-0.895t1.043-0.355q0.523 0 0.762-0.289t0.238-0.711q0-0.398-0.113-0.699t-0.41-0.566q-0.414-0.32-0.742-0.742-0.883-0.039-1.684-0.348t-1.352-0.762-0.875-1.016-0.324-1.117v-1q0-0.312 0.219-0.531t0.531-0.219h2.25v-0.75q0-0.516 0.367-0.883t0.883-0.367h4.5q0.516 0 0.883 0.367t0.367 0.883v0.75h2.25q0.312 0 0.531 0.219t0.219 0.531z"></path>
</svg>

<svg xmlns="http://www.w3.org/2000/svg" viewBox="0 0 13 14"><path d="M3.578 6.898Q3 5.632 3 4H1v.75q0 .61.738 1.266t1.84.883zM12 4.75V4h-2q0 1.633-.578 2.898 1.102-.227 1.84-.883T12 4.75zm1-1v1q0 .555-.324 1.117T11.8 6.883t-1.35.762-1.685.348q-.328.422-.742.742-.297.266-.41.566T7.5 10q0 .422.238.71T8.5 11q.586 0 1.043.355t.457.895v.5q0 .11-.07.18t-.18.07h-6.5q-.11 0-.18-.07T3 12.75v-.5q0-.54.457-.895T4.5 11q.523 0 .762-.29T5.5 10q0-.398-.113-.7t-.41-.565q-.414-.32-.742-.742-.883-.04-1.684-.348T1.2 6.883.323 5.867 0 4.75v-1q0-.312.22-.53T.75 3H3v-.75q0-.516.367-.883T4.25 1h4.5q.516 0 .883.367T10 2.25V3h2.25q.312 0 .53.22t.22.53z" /></svg>
